packages/foundations/assets/icons/functional/images/audio & video/fast_backward_10.svg

<svg xmlns="http://www.w3.org/2000/svg" width="32" height="32" fill="none"><path fill="#1A1C1F" fill-rule="evenodd" d="M16.88 5.115c-.262.123-3.566 3.425-3.65 3.648a1.17 1.17 0 0 0 .046.826c.132.255 3.449 3.56 3.647 3.635.208.078.593.07.8-.016.242-.101.51-.425.548-.663.039-.246.039-.257-.002-.517-.03-.187-.143-.322-.923-1.107l-.889-.894h.552c1.426 0 2.989.429 4.299 1.18 2.334 1.338 3.947 3.614 4.402 6.21.144.82.156 2.153.028 2.93a9.15 9.15 0 0 1-1.846 4.207c-.195.246-.385.522-.423.614-.101.244-.048.705.108.936.148.219.576.456.822.456.436 0 .91-.447 1.641-1.547a11 11 0 0 0 1.725-4.653c.114-.865.079-2.37-.076-3.24a10.87 10.87 0 0 0-2.829-5.61c-.961-1.005-1.855-1.675-3.041-2.279-1.442-.734-3.144-1.174-4.552-1.177-.286 0-.52-.019-.52-.041s.314-.353.699-.734.732-.77.773-.864c.088-.204.097-.588.018-.798-.194-.512-.831-.748-1.357-.502m-.445 10.941c-.86.154-1.645.568-2.206 1.162-.603.639-.899 1.319-.999 2.294-.07.681-.072 3.212-.004 3.901.068.678.171 1.058.437 1.6.284.581.896 1.212 1.457 1.503.707.368 1.062.445 2.027.44.781-.003.891-.016 1.306-.151 1.346-.439 2.191-1.319 2.573-2.683.112-.397.117-.515.118-2.629.001-2.513-.012-2.608-.459-3.518-.426-.868-1.301-1.553-2.323-1.82-.479-.125-1.49-.177-1.927-.099M6.227 17.104c-.855.432-1.638.858-1.739.946-.59.518-.353 1.429.435 1.682.297.095.5.037 1.325-.376.406-.203.762-.369.791-.369.036 0 .054 1.013.054 3.013v3.013H6.024c-.879 0-1.1.016-1.24.087-.397.2-.586.491-.586.9s.256.793.619.93q.152.057 3.348.057c3.402 0 3.407-.001 3.694-.256.154-.137.299-.49.299-.731s-.145-.594-.299-.731c-.254-.226-.447-.256-1.644-.256H9.067v-3.97c0-2.682-.019-4.018-.057-4.12-.134-.352-.531-.603-.957-.603-.243 0-.431.081-1.826.784m12.04 1.073c.498.228.776.622.877 1.244.072.44.072 3.648 0 4.099-.16 1.012-.785 1.496-1.944 1.505a4.6 4.6 0 0 1-.78-.06c-.599-.126-1.04-.556-1.163-1.133-.035-.161-.057-1.082-.057-2.358 0-2.295.015-2.431.314-2.844.339-.468.756-.607 1.766-.588.618.012.758.031.987.135"/></svg>

<svg width="32" height="32" viewBox="0 0 32 32" fill="none" xmlns="http://www.w3.org/2000/svg"><path d="M16.880 5.115 C 16.618 5.238,13.314 8.540,13.230 8.763 C 13.142 8.997,13.163 9.371,13.276 9.589 C 13.408 9.844,16.725 13.149,16.923 13.224 C 17.131 13.302,17.516 13.294,17.723 13.208 C 17.965 13.107,18.233 12.783,18.271 12.545 C 18.310 12.299,18.310 12.288,18.269 12.028 C 18.239 11.841,18.126 11.706,17.346 10.921 L 16.457 10.027 17.009 10.027 C 18.435 10.027,19.998 10.456,21.308 11.207 C 23.642 12.545,25.255 14.821,25.710 17.417 C 25.854 18.237,25.866 19.570,25.738 20.347 C 25.481 21.906,24.849 23.345,23.892 24.554 C 23.697 24.800,23.507 25.076,23.469 25.168 C 23.368 25.412,23.421 25.873,23.577 26.104 C 23.725 26.323,24.153 26.560,24.399 26.560 C 24.835 26.560,25.309 26.113,26.040 25.013 C 26.952 23.640,27.543 22.046,27.765 20.360 C 27.879 19.495,27.844 17.990,27.689 17.120 C 27.311 14.997,26.327 13.045,24.860 11.510 C 23.899 10.505,23.005 9.835,21.819 9.231 C 20.377 8.497,18.675 8.057,17.267 8.054 C 16.981 8.054,16.747 8.035,16.747 8.013 C 16.747 7.990,17.061 7.660,17.446 7.279 C 17.830 6.898,18.178 6.509,18.219 6.415 C 18.307 6.211,18.316 5.827,18.237 5.617 C 18.043 5.105,17.406 4.869,16.880 5.115 M16.435 16.056 C 15.575 16.210,14.790 16.624,14.229 17.218 C 13.626 17.857,13.330 18.537,13.230 19.512 C 13.160 20.193,13.158 22.724,13.226 23.413 C 13.294 24.091,13.397 24.471,13.663 25.013 C 13.947 25.594,14.559 26.225,15.120 26.516 C 15.827 26.884,16.182 26.961,17.147 26.956 C 17.928 26.953,18.038 26.940,18.453 26.805 C 19.799 26.366,20.644 25.486,21.026 24.122 C 21.138 23.725,21.143 23.607,21.144 21.493 C 21.145 18.980,21.132 18.885,20.685 17.975 C 20.259 17.107,19.384 16.422,18.362 16.155 C 17.883 16.030,16.872 15.978,16.435 16.056 M6.227 17.104 C 5.372 17.536,4.589 17.962,4.488 18.050 C 3.898 18.568,4.135 19.479,4.923 19.732 C 5.220 19.827,5.423 19.769,6.248 19.356 C 6.654 19.153,7.010 18.987,7.039 18.987 C 7.075 18.987,7.093 20.000,7.093 22.000 L 7.093 25.013 6.024 25.013 C 5.145 25.013,4.924 25.029,4.784 25.100 C 4.387 25.300,4.198 25.591,4.198 26.000 C 4.198 26.409,4.454 26.793,4.817 26.930 C 4.917 26.968,6.035 26.987,8.165 26.987 C 11.567 26.987,11.572 26.986,11.859 26.731 C 12.013 26.594,12.158 26.241,12.158 26.000 C 12.158 25.759,12.013 25.406,11.859 25.269 C 11.605 25.043,11.412 25.013,10.215 25.013 L 9.067 25.013 9.067 21.043 C 9.067 18.361,9.048 17.025,9.010 16.923 C 8.876 16.571,8.479 16.320,8.053 16.320 C 7.810 16.320,7.622 16.401,6.227 17.104 M18.267 18.177 C 18.765 18.405,19.043 18.799,19.144 19.421 C 19.216 19.861,19.216 23.069,19.144 23.520 C 18.984 24.532,18.359 25.016,17.200 25.025 C 16.936 25.027,16.585 25.000,16.420 24.965 C 15.821 24.839,15.380 24.409,15.257 23.832 C 15.222 23.671,15.200 22.750,15.200 21.474 C 15.200 19.179,15.215 19.043,15.514 18.630 C 15.853 18.162,16.270 18.023,17.280 18.042 C 17.898 18.054,18.038 18.073,18.267 18.177 " fill="#1A1C1F" stroke="none" fill-rule="evenodd"></path></svg>
